X:53212 F:http://www.vwml.org/record/HAM/5/32/12%%VWML:HAM-5-32-12-0 T:Ramble Away
S:Mrs Marina Russell, Upwey coll. HED Hammond
O:England
A:Dorset
N:Transcribed from HAM-02-230.gif
Z:EFDSS;PJHeadford
M:3/4
L:1/4
Q:3/4=45
K:Em
F|AFE|D2E/ F/|AFE|E2E|AGA|Bcd|cBA|B2A/ A/|
Bcd|e2d/ c/|BA"^*"A&xxc|dcd|edc|BAG|FED|E2||
W:[left of title:] Dorian 505 [right of title:] Mrs Russell of Upwey
W:[after tune, feintly:] Words D III p 13 [further indistinct words]
W:The MIDI file plays two verses, the second with the alternative c at *.
